assets/icons/utility/button_choice.svg

<svg xmlns="http://www.w3.org/2000/svg" width="52" height="52" viewBox="0 0 52 52">
  <path fill="#fff" d="M31.9981689,11.9995104 C33.4659424,11.9985117 34.998291,13.1328 34.998291,16.1348 L34.998291,16.1348 L34.998291,26 C34.998291,27.5134277 36.3779053,28.1114014 36.9779053,28.3114014 L36.9779053,28.3114014 L43.8,30.8 C46.7,31.9 48.5,35 47.7,38.2 L47.7,38.2 L44.5,48.5995 C44.3,49.3995 43.6,49.9995 42.7,49.9995 L42.7,49.9995 L26.6,49.9995 C25.8,49.9995 25.1,49.5995 24.8,48.8995 C20.9318685,39.9190553 18.7869873,34.9395752 18.3653564,33.9610596 C17.9437256,32.9825439 18.2219401,32.1955241 19.2,31.6 C21,30.3 23.7,31.6395508 24.8,33.5395508 L24.8,33.5395508 L26.4157715,35.7431828 C27.0515137,36.9508 29,36.9508 29,35.1508 L29,35.1508 L29,16.1348 C29,13.1328 30.5303955,12.0005117 31.9981689,11.9995104 Z M46,2 C48.2,2 50,3.8 50,6 L50,6 L50,21 C50,22.882323 48.1813389,25.0030348 46,25 L46,25 L40.010437,25 C39,25 39,24.1881157 39,24.059082 L39,15.5 C39,11.6547018 37.0187988,8 32,8 C26.9812012,8 25,11.1879783 25,15.5 L25,15.5 L25,24.059082 C25,24.4078007 24.7352295,25 23.987793,25 L23.987793,25 L6,25 C3.8,25 2,23.2 2,21 L2,21 L2,6 C2,3.8 3.8,2 6,2 L6,2 Z" />
</svg>

<?xml version="1.0"?><svg xmlns="http://www.w3.org/2000/svg" width="52" height="52" viewBox="0 0 52 52"><path fill="#fff" d="m32 12c1.5 0 3 1.1 3 4.1v9.9c0 1.5 1.4 2.1 2 2.3l6.8 2.5c2.9 1.1 4.7 4.2 3.9 7.4l-3.2 10.4c-0.2 0.8-0.9 1.4-1.8 1.4h-16.1c-0.8 0-1.5-0.4-1.8-1.1l-6.4-14.9c-0.5-1-0.2-1.8 0.8-2.4 1.8-1.3 4.5 0 5.6 1.9l1.6 2.2c0.7 1.3 2.6 1.3 2.6-0.6v-19c0-3 1.5-4.1 3-4.1z m14-10c2.2 0 4 1.8 4 4v15c0 1.9-1.8 4-4 4h-6c-1 0-1-0.8-1-0.9v-8.6c0-3.8-2-7.5-7-7.5s-7 3.2-7 7.5v8.6c0 0.3-0.3 0.9-1 0.9h-18c-2.2 0-4-1.8-4-4v-15c0-2.2 1.8-4 4-4z"></path></svg>
